X: 9036
T: Delights of Inchicore (with piano acc.)
C: BB
R: jig
Q: 1/8=320
M: 6/8
L: 1/8
V: 1 program 1 110 %fiddle
V: 2 volume=70 clef=bass m=D program 1 00
K: G
[V:1] A|"G"DGA BAG|"Am"AcA "D"AFE|"G"DGB d^cd|"A"ed^c "D"d2 A|
[V:2] z|G,,2[GBD]D,2[GBD]|A,,2[AEC]D,2[AFD]|G,,2[GBD]D,2[GBD]|A,,2[A^CE]D,2[AFD]|
%
[V:1] "G"DGA BAG|"Am"AcA ABc|"G"ded "Am"cAF|"D"AGF "G"G2 :|
[V:2] G,,2[GBD]D,2[GBD]|A,,2[AEC]E,2[AEC]|G,,2[GDB]A,,2[AEC]|D,2[AFD][G,,2D2B,2]:|
%
[V:1] A|"G"dgg Bdg|"D"a^ga fed|"G"BGB "C"cBc|"A"ed^c "D"d2 A|
[V:2] z|G,,2[GBD]B,,2[GBD]|D,2[AFD]A,,2[AFD]|G,,2[GDB]C,2[CGE]|A,,2[A^CE]D,2[AFD]|
%
[V:1] "G"dgg "Am"aga|"Em"bag "D7"fdc |"G"Bcd "Am6"cAF |"D"AGF "G"G2 :|
[V:2] G,,2[GDB]A,,2[AEc]|E,2[EBG]D,2[DAFc]|G,,2[GDB]A,,2[ACE]|D,2[AFD][G,,2D2B,2]:|
%%%%%%%%tune repeat
[V:1] A|"G"DGA BAG|"Am"AcA "D"AFE|"G"DGB d^cd|"A"ed^c "D"d2 A|
[V:2] z|G,,2[GBD]D,2[GBD]|A,,2[AEC]D,2[AFD]|G,,2[GBD]D,2[GBD]|A,,2[A^CE]D,2[AFD]|
%
[V:1] "G"DGA BAG|"Am"AcA ABc|"G"ded "Am"cAF|"D"AGF "G"G2 :|
[V:2] G,,2[GBD]D,2[GBD]|A,,2[AEC]E,2[AEC]|G,,2[GDB]A,,2[AEC]|D,2[AFD][G,,2D2B,2]:|
%
[V:1] A|"G"dgg Bdg|"D"a^ga fed|"G"BGB "C"cBc|"A"ed^c "D"d2 A|
[V:2] z|G,,2[GBD]B,,2[GBD]|D,2[AFD]A,,2[AFD]|G,,2[GDB]C,2[CGE]|A,,2[A^CE]D,2[AFD]|
%
[V:1] "G"dgg "Am"aga|"Em"bag "D7"fdc |"G"Bcd "Am6"cAF |1 "D"AGF "G"G2 :|2\
"D"AGF "G"G3-|G3 z3||
[V:2] G,,2[GDB]A,,2[AEc]|E,2[EBG]D,2[DAFc]|G,,2[GDB]A,,2[ACE]|1 D,2[AFD][G,,2D2B,2]:|2\
D,2[AFD][G,,3-D3-B,3-]|[G,,3D3B,3] z3||

%%%%%%%%%%%%%%%%%%%%%%%%%%%%%%%%%%%%%%%%%%%

